X: 1
T: Reel la Bottine
T: the Boot Reel
O: Qubec
N: a variant of the Gasp Reel
R: reel
Z: John Chambers <jc:trillian.mit.edu>
M: C|
L: 1/16
K: D
|: "D"f2ef  e2d2 | F2A2 B2A2 | "A7"g2fg f2e2 |1,3 cABc B2A2 \
                                            :|2,4 "G"B2"A"c2 "D"d4 :|
|: "A7"e2f2 g2e2 | "D"f2g2 a4 |1,3 "A7"e2f2 g2e2 | cABc B2A2 \
                             :|2,4 "A7"b2a2 g2e2 | "G"B2"A"c2 "D"d4 :|
